Sources/FrostedUI/Resources/Icons.xcassets/chevronLeftToLineInBox20.imageset/chevron-left-to-line-in-box-20.svg

<svg width="20" height="20" viewBox="0 0 20 20" fill="none" xmlns="http://www.w3.org/2000/svg" data-fui-icon="true">
  <path
    d="M13.25 1C16.4256 1 19 3.57436 19 6.75V13.25C19 16.4256 16.4256 19 13.25 19H6.75C3.57436 19 1 16.4256 1 13.25V6.75C1 3.57436 3.57436 1 6.75 1H13.25ZM6.75 2.5C4.40279 2.5 2.5 4.40279 2.5 6.75V13.25C2.5 15.5972 4.40279 17.5 6.75 17.5H13.25C15.5972 17.5 17.5 15.5972 17.5 13.25V6.75C17.5 4.40279 15.5972 2.5 13.25 2.5H6.75ZM7.75 6C8.16421 6 8.5 6.33579 8.5 6.75V13.25C8.49995 13.6642 8.16418 14 7.75 14C7.33582 14 7.00005 13.6642 7 13.25V6.75C7 6.33579 7.33579 6 7.75 6ZM12.6992 6.24121C12.9802 5.93704 13.4545 5.91832 13.7588 6.19922C14.063 6.4802 14.0817 6.95449 13.8008 7.25879L11.2695 10L13.8008 12.7412C14.0817 13.0455 14.063 13.5198 13.7588 13.8008C13.4545 14.0817 12.9802 14.0629 12.6992 13.7588L9.69922 10.5088C9.43402 10.2215 9.43402 9.77851 9.69922 9.49121L12.6992 6.24121Z"
    fill="currentColor"
  />
</svg>

<svg xmlns="http://www.w3.org/2000/svg" width="20" height="20" fill="none" data-fui-icon="true" viewBox="0 0 20 20"><path fill="currentColor" d="M13.25 1A5.75 5.75 0 0 1 19 6.75v6.5A5.75 5.75 0 0 1 13.25 19h-6.5A5.75 5.75 0 0 1 1 13.25v-6.5A5.75 5.75 0 0 1 6.75 1zm-6.5 1.5A4.25 4.25 0 0 0 2.5 6.75v6.5a4.25 4.25 0 0 0 4.25 4.25h6.5a4.25 4.25 0 0 0 4.25-4.25v-6.5a4.25 4.25 0 0 0-4.25-4.25zm1 3.5a.75.75 0 0 1 .75.75v6.5a.75.75 0 0 1-1.5 0v-6.5A.75.75 0 0 1 7.75 6m4.95.241a.75.75 0 0 1 1.1 1.018L11.27 10l2.53 2.741a.75.75 0 0 1-1.1 1.018l-3-3.25a.75.75 0 0 1 0-1.018z"/></svg>
